X: 3856
T: Black Pat
R: reel
M: 4/4
K: Gmajor
|:G3 B e2 dB|ADBA GE E2|G3 B edBA|(3Bcd gb a2 ga|
bg g2 aged|ABdB AGED|G3 B eddB|AGBA G3 z:|
|:DG G2 GEDE|G3 A Be e2|d2 BG ADBD|ADBA GE E2|
GFGA GEDE|G3 B dega|bg g2 ageg|dgba g3 z|
|:d3 B BAGE|DEGA Be e2|d2 BG dGBG|ADBA GE E2|
GFGA GEDE|G3 B dega|bg g2 ageg|dgba g3 z||
|:b3 g egde|gedB G3 z|b2 gd b2 gd|eaag a2 ga|
b^abg egdg|egdc (3Bcd ga|b2 ag eddB|AGGF G3 z:|

